X: 216
T: Dong sinu
L: 1/8
M: 3/8
K: A
B e c [I:setbarnb 1]| 
B/ c/ B B | 
f e B | 
A/ B/ F E | 
B e e | 
B/ c/ B A | 
B/ A/ F E | 
C2z | 
B E F | 
B e c | 
B/ c/ B E | 
F2z | 
B B A | 
B/ c/ B A | 
E/ C/ E F | 
c B A/ F/ | 
E/ F/ E C | 
B,2z |]

@@@ Tune index: 9090
